X:268
T: MEI SCHAETZLE MAG MI NIMMER, GAR NIMMER MAG ER MICH
N: Z0266
O: Europa, Mitteleuropa, Deutschland; Vogtland
R: lyrisches Lied, Romanze
M: 2/4
L: 1/8
K: F
C | FGAB | c2c
c | defd | c2z
c | defd | c2z
c | cBBB | BAA
A | BABG | A2z
B | cBBB | BAA
A | BABG | F2z

@@@ Tune index: 10026
